X: 8741
T: Crystal Year, The
R: slide
M: 12/8
K: Eminor
DEF EBB|DEF EBB|DAF Gdd|z AF Gd2|Bcc cAG|
cEB EAG|Eee dAG|A2> G2Fz|EEF EBB|
DEF EBB|DAF Gdd|zAF Gd2|Bcc cAG|
cEB EAG|Eee dAG|A4zE|ABe ABe|
gAB efg|fAA fAf|eGG E G2|ABe zBe|
gAB efg|fAA fAf|eG g2 fz|ABE ABe|
g4 gg|fzA fzf|eGG EGz|ABe ABe|
gAB ega|fAA fAf|ez g2 fz|

